src/epub/images/titlepage.svg

<?xml version="1.0" encoding="utf-8"?>
<svg xmlns="http://www.w3.org/2000/svg" xmlns:svg="http://www.w3.org/2000/svg" version="1.1" viewBox="0 0 1400 340">
	<title>The titlepage for the Standard Ebooks edition of Frankenstein, by Mary Shelley</title>
	<g>
		<path d="m 348.4766,52.807016 -44.63158,0 0,77.192984 17.59065,0 0,-30.970761 24.98245,0 0,-15.438597 -24.98245,0 0,-15.345029 27.04093,0 0,-15.438597 z"/>
		<path d="m 361.8421,52.807016 0,77.192984 17.59064,0 0,-30.502925 L 403.01169,130 l 22.36258,0 -26.5731,-31.906433 c 9.45029,-2.994152 15.81286,-10.760234 15.81286,-22.362574 0,-15.157895 -10.8538,-22.923977 -25.16959,-22.923977 l -27.60234,0 z m 17.59064,34.245615 0,-20.210527 2.05848,0 c 6.64328,0 14.5965,0.467836 14.5965,10.105263 0,9.637428 -7.95322,10.105264 -14.5965,10.105264 l -2.05848,0 z"/>
		<path d="m 473.1155,52.807016 -16.2807,0 L 425.6769,130 l 18.90059,0 5.7076,-15.4386 29.38012,0 5.7076,15.4386 18.90058,0 -31.15789,-77.192984 z m 0.5614,46.31579 -17.40351,0 8.60819,-22.45614 0.18713,0 8.60819,22.45614 z"/>
		<path d="m 529.78363,82.093566 0.18713,0 L 560.66082,130 l 17.59064,0 0,-77.192984 -17.59064,0 0,47.906434 -0.18713,0 -30.69006,-47.906434 -17.59065,0 0,77.192984 17.59065,0 0,-47.906434 z"/>
		<path d="m 664.76463,130 -35.92982,-40.608188 31.06433,-36.584796 -21.33334,0 -26.47953,31.532164 0,-31.532164 -17.59064,0 0,77.192984 17.59064,0 0,-32.748539 L 640.53072,130 l 24.23391,0 z"/>
		<path d="m 717.30701,52.807016 -44.16374,0 0,77.192984 44.16374,0 0,-15.4386 -26.5731,0 0,-15.532161 25.4503,0 0,-15.438597 -25.4503,0 0,-15.345029 26.5731,0 0,-15.438597 z"/>
		<path d="m 750.01025,82.093566 0.18714,0 L 780.88744,130 l 17.59065,0 0,-77.192984 -17.59065,0 0,47.906434 -0.18713,0 -30.69006,-47.906434 -17.59064,0 0,77.192984 17.59064,0 0,-47.906434 z"/>
		<path d="m 841.33918,51.403507 c -12.44444,0 -25.16959,9.169591 -25.16959,23.578948 0,8.046784 5.4269,15.251462 14.69006,19.836258 9.16959,4.584795 17.40351,7.111107 17.40351,12.725147 0,7.20468 -7.29825,7.57895 -11.13451,7.57895 -8.60818,0 -18.90058,-8.70176 -18.90058,-8.70176 l -8.79532,14.78363 c 0,0 10.94737,10.19883 29.00585,10.19883 15.06432,0 29.09941,-6.45614 29.09941,-24.88889 0,-10.105264 -9.45029,-17.40351 -18.05848,-21.052632 -8.79532,-3.742691 -16.09357,-6.83041 -16.09357,-11.134504 0,-4.210526 3.18129,-6.923976 9.1696,-6.923976 7.95321,0 15.62573,5.333333 15.62573,5.333333 l 7.11111,-14.035088 c 0,0 -9.91813,-7.298246 -23.95322,-7.298246 z"/>
		<path d="m 871.32602,68.245613 18.33918,0 0,61.754387 17.59065,0 0,-61.754387 18.33918,0 0,-15.438597 -54.26901,0 0,15.438597 z"/>
		<path d="m 981.09361,52.807016 -44.16375,0 0,77.192984 44.16375,0 0,-15.4386 -26.5731,0 0,-15.532161 25.45029,0 0,-15.438597 -25.45029,0 0,-15.345029 26.5731,0 0,-15.438597 z"/>
		<path d="m 1013.7968,52.807016 -17.59063,0 0,77.192984 17.59063,0 0,-77.192984 z"/>
		<path d="m 1047.6711,82.093566 0.1871,0 30.6901,47.906434 17.5906,0 0,-77.192984 -17.5906,0 0,47.906434 -0.1872,0 -30.69,-47.906434 -17.5907,0 0,77.192984 17.5907,0 0,-47.906434 z"/>
	</g>
	<g>
		<path d="m 450.72149,290 13.19299,0 -5.19299,-57.89474 -14.03508,0 -12.84211,33.40351 -12.8421,-33.40351 -14.03509,0 -5.19298,57.89474 13.19298,0 2.73684,-34.31579 0.35088,0 11.85965,33.96491 7.85965,0 11.85964,-33.96491 0.35088,0 L 450.72149,290 Z"/>
		<path d="m 503.60307,232.10526 -12.21053,0 L 468.02412,290 l 14.17544,0 4.2807,-11.57895 22.03509,0 4.2807,11.57895 14.17544,0 -23.36842,-57.89474 z m 0.42105,34.73685 -13.05263,0 6.45614,-16.84211 0.14035,0 6.45614,16.84211 z"/>
		<path d="m 534.16119,232.10526 0,57.89474 13.19298,0 0,-22.87719 17.68421,22.87719 16.77193,0 -19.92982,-23.92982 c 7.08772,-2.24562 11.85965,-8.07018 11.85965,-16.77193 0,-11.36842 -8.14035,-17.19299 -18.87719,-17.19299 l -20.70176,0 z m 13.19298,25.68421 0,-15.15789 1.54386,0 c 4.98246,0 10.94737,0.35088 10.94737,7.57895 0,7.22807 -5.96491,7.57894 -10.94737,7.57894 l -1.54386,0 z"/>
		<path d="m 576.84211,232.10526 21.33333,31.92983 0,25.96491 13.19298,0 0,-25.96491 21.33333,-31.92983 -15.85964,0 -12.07018,18.52632 -12.07017,-18.52632 -15.85965,0 z"/>
		<path d="m 683.98137,231.05263 c -9.33333,0 -18.87719,6.8772 -18.87719,17.68421 0,6.03509 4.07017,11.4386 11.01754,14.8772 6.8772,3.43859 13.05263,5.33333 13.05263,9.54385 0,5.40351 -5.47368,5.68422 -8.35087,5.68422 -6.45614,0 -14.17544,-6.52632 -14.17544,-6.52632 l -6.59649,11.08772 c 0,0 8.21052,7.64912 21.75438,7.64912 11.29825,0 21.82456,-4.8421 21.82456,-18.66666 0,-7.57895 -7.08771,-13.05264 -13.54386,-15.78948 -6.59649,-2.80702 -12.07017,-5.12281 -12.07017,-8.35088 0,-3.15789 2.38596,-5.19298 6.87719,-5.19298 5.96491,0 11.7193,4 11.7193,4 l 5.33333,-10.52631 c 0,0 -7.43859,-5.47369 -17.96491,-5.47369 z"/>
		<path d="m 727.99013,266.77193 18.66667,0 0,23.22807 13.19298,0 0,-57.89474 -13.19298,0 0,23.08772 -18.66667,0 0,-23.08772 -13.19298,0 0,57.89474 13.19298,0 0,-23.22807 z"/>
		<path d="m 806.3739,232.10526 -33.1228,0 0,57.89474 33.1228,0 0,-11.57895 -19.92982,0 0,-11.64912 19.08772,0 0,-11.57895 -19.08772,0 0,-11.50877 19.92982,0 0,-11.57895 z"/>
		<path d="m 832.15132,232.10526 -13.19298,0 0,57.89474 33.12281,0 0,-11.57895 -19.92983,0 0,-46.31579 z"/>
		<path d="m 876.76207,232.10526 -13.19298,0 0,57.89474 33.12281,0 0,-11.57895 -19.92983,0 0,-46.31579 z"/>
		<path d="m 941.30264,232.10526 -33.1228,0 0,57.89474 33.1228,0 0,-11.57895 -19.92982,0 0,-11.64912 19.08772,0 0,-11.57895 -19.08772,0 0,-11.50877 19.92982,0 0,-11.57895 z"/>
		<path d="m 947.57126,232.10526 21.33334,31.92983 0,25.96491 13.19298,0 0,-25.96491 21.33332,-31.92983 -15.85964,0 -12.07017,18.52632 -12.07018,-18.52632 -15.85965,0 z"/>
	</g>
</svg>

<?xml version="1.0" encoding="utf-8"?>
<svg xmlns="http://www.w3.org/2000/svg" xmlns:svg="http://www.w3.org/2000/svg" version="1.1" viewBox="0 0 1400 340">
	<title>The titlepage for the Standard Ebooks edition of Frankenstein, by Mary Shelley</title>
	<g aria-label="FRANKENSTEIN">
		<path d="M 348.4766,52.807016 H 303.84502 V 130 h 17.59065 V 99.029239 h 24.98245 V 83.590642 H 321.43567 V 68.245613 h 27.04093 z"/>
		<path d="M 361.8421,52.807016 V 130 h 17.59064 V 99.497075 L 403.01169,130 h 22.36258 l -26.5731,-31.906433 c 9.45029,-2.994152 15.81286,-10.760234 15.81286,-22.362574 0,-15.157895 -10.8538,-22.923977 -25.16959,-22.923977 z m 17.59064,34.245615 V 66.842104 h 2.05848 c 6.64328,0 14.5965,0.467836 14.5965,10.105263 0,9.637428 -7.95322,10.105264 -14.5965,10.105264 z"/>
		<path d="M 473.1155,52.807016 H 456.8348 L 425.6769,130 h 18.90059 l 5.7076,-15.4386 h 29.38012 L 485.37281,130 h 18.90058 z m 0.5614,46.31579 h -17.40351 l 8.60819,-22.45614 h 0.18713 z"/>
		<path d="m 529.78363,82.093566 h 0.18713 L 560.66082,130 h 17.59064 V 52.807016 h -17.59064 v 47.906434 h -0.18713 L 529.78363,52.807016 H 512.19298 V 130 h 17.59065 z"/>
		<path d="M 664.76463,130 628.83481,89.391812 659.89914,52.807016 H 638.5658 L 612.08627,84.33918 V 52.807016 H 594.49563 V 130 h 17.59064 V 97.251461 L 640.53072,130 Z"/>
		<path d="M 717.30701,52.807016 H 673.14327 V 130 h 44.16374 v -15.4386 h -26.5731 V 99.029239 h 25.4503 V 83.590642 h -25.4503 V 68.245613 h 26.5731 z"/>
		<path d="m 750.01025,82.093566 h 0.18714 L 780.88744,130 h 17.59065 V 52.807016 h -17.59065 v 47.906434 h -0.18713 L 750.01025,52.807016 H 732.41961 V 130 h 17.59064 z"/>
		<path d="m 841.33918,51.403507 c -12.44444,0 -25.16959,9.169591 -25.16959,23.578948 0,8.046784 5.4269,15.251462 14.69006,19.836258 9.16959,4.584795 17.40351,7.111107 17.40351,12.725147 0,7.20468 -7.29825,7.57895 -11.13451,7.57895 -8.60818,0 -18.90058,-8.70176 -18.90058,-8.70176 l -8.79532,14.78363 c 0,0 10.94737,10.19883 29.00585,10.19883 15.06432,0 29.09941,-6.45614 29.09941,-24.88889 0,-10.105264 -9.45029,-17.40351 -18.05848,-21.052632 -8.79532,-3.742691 -16.09357,-6.83041 -16.09357,-11.134504 0,-4.210526 3.18129,-6.923976 9.1696,-6.923976 7.95321,0 15.62573,5.333333 15.62573,5.333333 l 7.11111,-14.035088 c 0,0 -9.91813,-7.298246 -23.95322,-7.298246 z"/>
		<path d="M 871.32602,68.245613 H 889.6652 V 130 h 17.59065 V 68.245613 h 18.33918 V 52.807016 h -54.26901 z"/>
		<path d="M 981.09361,52.807016 H 936.92986 V 130 h 44.16375 v -15.4386 h -26.5731 V 99.029239 H 979.9708 V 83.590642 H 954.52051 V 68.245613 h 26.5731 z"/>
		<path d="M 1013.7968,52.807016 H 996.20617 V 130 h 17.59063 z"/>
		<path d="m 1047.6711,82.093566 h 0.1871 L 1078.5483,130 h 17.5906 V 52.807016 h -17.5906 v 47.906434 h -0.1872 l -30.69,-47.906434 h -17.5907 V 130 h 17.5907 z"/>
	</g>
	<g aria-label="MARY SHELLEY">
		<path d="m 450.72149,290 h 13.19299 l -5.19299,-57.89474 H 444.68641 L 431.8443,265.50877 419.0022,232.10526 H 404.96711 L 399.77413,290 h 13.19298 l 2.73684,-34.31579 h 0.35088 l 11.85965,33.96491 h 7.85965 l 11.85964,-33.96491 h 0.35088 z"/>
		<path d="M 503.60307,232.10526 H 491.39254 L 468.02412,290 h 14.17544 l 4.2807,-11.57895 h 22.03509 L 512.79605,290 h 14.17544 z m 0.42105,34.73685 H 490.97149 L 497.42763,250 h 0.14035 z"/>
		<path d="M 534.16119,232.10526 V 290 h 13.19298 V 267.12281 L 565.03838,290 h 16.77193 l -19.92982,-23.92982 c 7.08772,-2.24562 11.85965,-8.07018 11.85965,-16.77193 0,-11.36842 -8.14035,-17.19299 -18.87719,-17.19299 z m 13.19298,25.68421 v -15.15789 h 1.54386 c 4.98246,0 10.94737,0.35088 10.94737,7.57895 0,7.22807 -5.96491,7.57894 -10.94737,7.57894 z"/>
		<path d="m 576.84211,232.10526 21.33333,31.92983 V 290 h 13.19298 v -25.96491 l 21.33333,-31.92983 h -15.85964 l -12.07018,18.52632 -12.07017,-18.52632 z"/>
		<path d="m 683.98137,231.05263 c -9.33333,0 -18.87719,6.8772 -18.87719,17.68421 0,6.03509 4.07017,11.4386 11.01754,14.8772 6.8772,3.43859 13.05263,5.33333 13.05263,9.54385 0,5.40351 -5.47368,5.68422 -8.35087,5.68422 -6.45614,0 -14.17544,-6.52632 -14.17544,-6.52632 l -6.59649,11.08772 c 0,0 8.21052,7.64912 21.75438,7.64912 11.29825,0 21.82456,-4.8421 21.82456,-18.66666 0,-7.57895 -7.08771,-13.05264 -13.54386,-15.78948 -6.59649,-2.80702 -12.07017,-5.12281 -12.07017,-8.35088 0,-3.15789 2.38596,-5.19298 6.87719,-5.19298 5.96491,0 11.7193,4 11.7193,4 l 5.33333,-10.52631 c 0,0 -7.43859,-5.47369 -17.96491,-5.47369 z"/>
		<path d="M 727.99013,266.77193 H 746.6568 V 290 h 13.19298 V 232.10526 H 746.6568 v 23.08772 H 727.99013 V 232.10526 H 714.79715 V 290 h 13.19298 z"/>
		<path d="M 806.3739,232.10526 H 773.2511 V 290 h 33.1228 v -11.57895 h -19.92982 v -11.64912 h 19.08772 v -11.57895 h -19.08772 v -11.50877 h 19.92982 z"/>
		<path d="M 832.15132,232.10526 H 818.95834 V 290 h 33.12281 v -11.57895 h -19.92983 z"/>
		<path d="M 876.76207,232.10526 H 863.56909 V 290 h 33.12281 v -11.57895 h -19.92983 z"/>
		<path d="m 941.30264,232.10526 h -33.1228 V 290 h 33.1228 v -11.57895 h -19.92982 v -11.64912 h 19.08772 v -11.57895 h -19.08772 v -11.50877 h 19.92982 z"/>
		<path d="m 947.57126,232.10526 21.33334,31.92983 V 290 h 13.19298 v -25.96491 l 21.33332,-31.92983 h -15.85964 l -12.07017,18.52632 -12.07018,-18.52632 z"/>
	</g>
</svg>
